frontend/public/svg/currency/euro.svg

<svg width="163" height="160" viewBox="0 0 163 160" fill="none" xmlns="http://www.w3.org/2000/svg">
<g clip-path="url(#clip0)">
<path d="M57.9268 90.9065C58.8969 95.8908 60.5984 100.039 63.5506 103.45C73.6506 115.116 86.7393 118.375 101.527 116.38C103.276 116.143 104.945 115.33 106.664 114.833C108.677 114.252 110.593 114.493 111.682 116.421C112.806 118.412 111.727 120.155 110.303 121.537C107.509 124.251 103.864 125.348 100.192 125.644C85.2934 126.846 71.6278 123.633 60.2118 113.397C54.3546 108.147 50.7368 101.466 48.9477 93.8909C48.3727 91.4592 47.3612 90.8061 45.0942 90.9728C43.0754 91.0837 41.0508 91.0476 39.0372 90.8645C37.9234 90.7844 36.8304 90.5226 35.8011 90.09C34.3237 89.4534 33.3551 88.1079 33.8814 86.5865C34.3934 85.4281 35.2832 84.4777 36.4055 83.8909C37.3047 83.3967 38.5793 83.5122 39.6872 83.4899C42.1242 83.4407 44.5633 83.4748 47.3094 83.4748V71.1888C45.4651 71.1888 43.3639 71.2748 41.2742 71.1613C39.5939 71.1035 37.9244 70.8705 36.2927 70.4655C35.4522 70.2896 34.7097 69.802 34.2153 69.0997C33.721 68.3974 33.512 67.5337 33.6301 66.6837C33.7725 64.6351 35.0825 63.6506 36.9458 63.541C40.1907 63.3507 43.4478 63.3592 46.6986 63.2542C47.5847 63.2253 48.4673 63.0882 49.5207 62.9838C50.1259 61.4178 50.7199 59.8707 51.3224 58.3237C53.3578 52.8104 56.9245 47.9926 61.6034 44.4363C71.6455 36.9344 82.708 32.5822 95.4699 34.1253C98.2107 34.4535 100.895 35.455 103.53 36.3647C104.705 36.7473 105.739 37.4737 106.498 38.4499C106.805 38.9357 107.014 39.4775 107.112 40.0441C107.209 40.6108 107.194 41.1912 107.066 41.7519C106.928 42.2297 105.203 42.2769 104.184 42.4515C103.846 42.4476 103.513 42.3684 103.209 42.2198C87.4685 37.019 74.9396 42.9714 63.8883 53.696C61.5544 55.9623 60.1336 58.9316 59.369 62.5874C60.557 62.5874 61.523 62.609 62.4872 62.5834C69.3325 62.4009 76.1775 62.1772 83.0244 62.042C84.7059 62.0314 86.3855 62.1514 88.048 62.401C88.9039 62.4492 89.7105 62.8136 90.313 63.4237C90.9156 64.0338 91.27 64.8458 91.3074 65.7023C91.482 67.5534 90.804 69.2526 89.0168 69.7764C86.7793 70.4465 84.4611 70.8101 82.1252 70.8567C74.7165 70.9335 67.3058 70.7793 59.8958 70.7346C59.1253 70.73 58.3535 70.8607 57.1038 70.9703V82.4857C61.8899 82.4857 66.8896 82.5986 71.8811 82.4483C75.5782 82.3374 79.261 81.7716 82.9581 81.6318C84.7171 81.5662 86.6809 81.6318 88.2049 82.3603C88.8632 82.7187 89.4375 83.2142 89.8877 83.8135C90.3386 84.4127 90.6556 85.1012 90.8171 85.8337C90.9569 86.9271 89.8589 88.7078 88.8094 89.3018C87.1403 90.1859 85.2855 90.6637 83.3972 90.6965C76.2149 90.8934 69.0234 90.8566 61.8399 90.9039C60.7392 90.9118 59.6261 90.9065 57.9268 90.9065Z" fill="black"/>
<path d="M161.45 73.2167C159.603 57.0105 153.097 41.6873 142.721 29.1022C134.169 18.6086 124.969 11.129 114.597 6.24586C106.503 2.34643 97.6363 0.316002 88.6523 0.304688C85.8918 0.308862 83.1345 0.489078 80.3976 0.844211C69.0062 2.32097 57.4599 5.62562 44.0725 11.2504C25.9642 18.864 13.3559 31.9487 6.60809 50.1312C1.87475 62.6171 0.050534 76.018 1.27406 89.3147C2.697 104.253 6.29141 115.831 12.5831 125.741C21.6747 140.046 33.1268 149.468 47.6004 154.533C56.3743 157.608 66.0317 159.153 77.9822 159.396C85.0169 159.396 91.5658 158.546 97.8988 157.723L99.0993 157.568C112.925 155.781 124.666 150.79 135 142.326C144.717 134.512 152.073 124.152 156.245 112.401C161.193 98.3663 162.893 85.5454 161.45 73.2167ZM145.129 117.776C137.305 133.618 124.147 144.011 106.005 148.665C103.826 149.225 101.574 149.63 99.1931 150.054C98.0117 150.263 96.7784 150.486 95.4835 150.735C89.839 151.585 82.2255 151.713 78.0295 151.713C76.1616 151.713 74.9677 151.687 74.9342 151.687C63.914 151.551 54.4316 149.683 45.9537 145.967C34.6575 141.017 25.6271 132.661 18.3562 120.426C13.9659 113.049 11.1806 104.315 9.59557 92.9436C7.56217 78.4799 9.34025 63.7363 14.7546 50.1713C20.4536 35.7187 30.7037 24.7526 45.2186 17.5834C48.5705 15.9242 62.1943 11.9317 65.7753 11.2032C70.8176 10.1969 75.9305 9.58144 81.0677 9.36216C101.388 8.87647 109.414 12.147 121.827 21.6232C134.822 31.5438 143.981 44.0142 149.052 58.6827C155.939 78.6663 154.625 98.5481 145.129 117.776Z" fill="black"/>
</g>
<defs>
<clipPath id="clip0">
<rect width="161.459" height="159.49" fill="white" transform="translate(0.658447 0.13501)"/>
</clipPath>
</defs>
</svg>

<svg xmlns="http://www.w3.org/2000/svg" width="163" height="160" fill="none" viewBox="0 0 163 160"><g fill="#000" clip-path="url(#a)"><path d="M57.927 90.907c.97 4.984 2.671 9.132 5.624 12.543 10.1 11.666 23.188 14.925 37.976 12.93 1.749-.237 3.418-1.05 5.137-1.547 2.013-.581 3.929-.34 5.018 1.588 1.124 1.991.045 3.734-1.379 5.116-2.794 2.714-6.439 3.811-10.111 4.107-14.899 1.202-28.564-2.011-39.98-12.247-5.857-5.25-9.475-11.931-11.264-19.506-.575-2.432-1.587-3.085-3.854-2.918a42 42 0 0 1-6.057-.108 10.3 10.3 0 0 1-3.236-.775c-1.477-.637-2.446-1.982-1.92-3.504a5.6 5.6 0 0 1 2.525-2.695c.899-.494 2.173-.379 3.281-.401 2.437-.05 4.876-.015 7.622-.015V71.189c-1.844 0-3.945.086-6.035-.028a24 24 0 0 1-4.981-.695 3.39 3.39 0 0 1-2.663-3.782c.142-2.049 1.453-3.033 3.316-3.143 3.245-.19 6.502-.182 9.753-.287.886-.029 1.768-.166 2.822-.27.605-1.566 1.199-3.113 1.801-4.66a30.87 30.87 0 0 1 10.281-13.888c10.042-7.502 21.105-11.854 33.867-10.31 2.74.328 5.425 1.329 8.06 2.239a6.2 6.2 0 0 1 2.968 2.085 4.37 4.37 0 0 1 .568 3.302c-.138.478-1.863.525-2.882.7a2.3 2.3 0 0 1-.975-.232c-15.74-5.201-28.27.751-39.32 11.476-2.335 2.266-3.755 5.236-4.52 8.891 1.188 0 2.154.022 3.118-.004 6.845-.182 13.69-.406 20.537-.541 1.682-.01 3.361.11 5.024.359a3.455 3.455 0 0 1 3.26 3.301c.174 1.851-.504 3.55-2.291 4.074a25.8 25.8 0 0 1-6.892 1.08c-7.409.078-14.82-.077-22.23-.121-.77-.005-1.542.126-2.791.235v11.516c4.786 0 9.786.113 14.777-.038 3.697-.11 7.38-.676 11.077-.816 1.76-.066 3.723 0 5.247.728a5.24 5.24 0 0 1 2.612 3.474c.14 1.093-.958 2.874-2.008 3.468a12 12 0 0 1-5.412 1.394c-7.182.197-14.374.16-21.557.208-1.1.008-2.214.002-3.913.002"/><path d="M161.45 73.217a84.37 84.37 0 0 0-18.729-44.115c-8.552-10.493-17.752-17.973-28.124-22.856A59.95 59.95 0 0 0 88.652.305a65 65 0 0 0-8.254.54C69.006 2.32 57.46 5.624 44.073 11.25c-18.11 7.614-30.717 20.7-37.466 38.881a87.8 87.8 0 0 0-5.334 39.184c1.423 14.938 5.017 26.516 11.31 36.426 9.09 14.305 20.543 23.727 35.016 28.792 8.774 3.075 18.432 4.62 30.382 4.863 7.035 0 13.584-.85 19.917-1.673l1.2-.155c13.826-1.787 25.567-6.778 35.901-15.242a67.3 67.3 0 0 0 21.245-29.925c4.948-14.035 6.648-26.856 5.205-39.184m-16.321 44.559c-7.824 15.842-20.982 26.235-39.124 30.889-2.179.56-4.431.965-6.812 1.389-1.181.209-2.415.432-3.71.681-5.644.85-13.258.978-17.454.978-1.867 0-3.061-.026-3.095-.026-11.02-.136-20.502-2.004-28.98-5.72-11.297-4.95-20.327-13.306-27.598-25.541-4.39-7.377-7.175-16.111-8.76-27.482a83.9 83.9 0 0 1 5.159-42.773c5.699-14.452 15.949-25.418 30.464-32.588 3.352-1.659 16.975-5.651 20.556-6.38a100 100 0 0 1 15.293-1.84c20.32-.487 28.346 2.784 40.759 12.26 12.995 9.92 22.154 22.391 27.225 37.06 6.887 19.983 5.573 39.865-3.923 59.093"/></g><defs><clipPath id="a"><path fill="#fff" d="M.658.135h161.46v159.49H.657z"/></clipPath></defs></svg>
